!!!COM: Bach, Johann Sebastian
!!!OPR: Joh. Seb. Bachs vierstimmige Choralgesänge
!!!XEN: Four-part Chorales
!!!OTL: 120. Liebster Jesu, wir sind hier
!!!SCT: BWV 373
!!!SCA: Thematisch-systematisches Verzeichnis der musikalischen Werke Johann Sebastian Bach: Bach-Werke-Verzeichnis (Schmieder)
!!!YOR: Bach Gesellschaft Edition xxxix
!!!ENC: Steven Rasmussen
!!!CDT: 1685/3//-1750/7/28/
!!!OCY: Deutschland
!!!YEC: Copyright (c) 1994, 2000 Center for Computer Assisted Research in the Humanities
!!!YEM: Rights to all derivative editions reserved
!!!YEN: United States of America
**kern	**kern	**kern	**kern	**silbe
*I:[BASSO]	*I:[TENORE]	*I:[ALTO]	*I:[SOPRANO]	*I:[SOPRANO]
*>[A,A,B]	*>[A,A,B]	*>[A,A,B]	*>[A,A,B]	*
*>A	*>A	*>A	*>A	*
*clefF4	*clefGv2	*clefG2	*clefG2	*
*k[f#]	*k[f#]	*k[f#]	*k[f#]	*
*G:	*G:	*G:	*G:	*
*M4/4	*M4/4	*M4/4	*M4/4	*
=1-	=1-	=1-	=1-	=1-
4GG	8GL	4d	4b	Lieb-len-
.	8AJ	.	.	.
4G	4B	4d	8aL	-ster-ke
.	.	.	8gJ	.
8GL	4A	4d	4a	Je-Sin-
8F#J	.	.	.	.
8EL	4A	4f#	4dd	-su,-nen
8DJ	.	.	.	.
=2	=2	=2	=2	=2
8GL	8BL	4d	4b	wirund
8AJ	8cJ	.	.	.
8BL	4d	8dL	4g	sindBe-
8GJ	.	8eJ	.	.
2D;	2d;	2f#;	2a;	hier,-gier
=3	=3	=3	=3	=3
(8EE	4B	4e	4g	dichauf
4E)	.	.	.	.
.	4B	4fn	4g	unddie
8D	.	.	.	.
(8CC	4c	4e	4g	deinsÃ¼-
4C)	.	.	.	.
.	4G	4d	4g	Wort-ssen
8BB	.	.	.	.
=4	=4	=4	=4	=4
4AA	4c	8eL	4a	an-Him-
.	.	8f#J	.	.
8GGL	4d	4g	4b	-zu--mels-
8BBJ	.	.	.	.
8CL	8eL	4g	2a	-hÃ¶--leh-
8AAJ	8c	.	.	.
4D	8A	4f#	.	.
.	16dL	.	.	.
.	16cJJ	.	.	.
=5	=5	=5	=5	=5
1GG;	1B;	1d;	1g;	-ren;-ren,
=6:|!	=6:|!	=6:|!	=6:|!	=6:|!
*>B	*>B	*>B	*>B	*
(8GG	4G	4B	4d	dass
4G)	.	.	.	.
.	4A	4A	4d	die
8F#	.	.	.	.
4E	4G	8BL	4e	Her-
.	.	8c#J	.	.
4D	4A	4d	4f#	-zen
=7	=7	=7	=7	=7
4D	4B	4e	4g	von
4C#	4A	4e	4a	der
4D	4A	4d	4f#	Er-
4D;	4F#;	4A;	4d;	-den
=8	=8	=8	=8	=8
8BBL	4.G	8dL	4g	ganz
8GGJ	.	8BJ	.	.
8AAL	.	8cL	4g	zu
8BBJ	8Fn	8dJ	.	.
8CL	8EL	4e	4g	dir
8DJ	8F#J	.	.	.
8CL	8GL	4e	4g	ge-
8BBJ	16AL	.	.	.
.	16BJJ	.	.	.
=9	=9	=9	=9	=9
4AA	4c	8eL	4a	-zo-
.	.	8f#J	.	.
8GGL	4d	4g	4b	-gen
8BBJ	.	.	.	.
2D	4.d	4g	2a	wer-
.	.	4f#	.	.
.	8c	.	.	.
=10	=10	=10	=10	=10
1GG;	1B;	1d;	1g;	-den.
==|!	==|!	==|!	==|!	==|!
*-	*-	*-	*-	*-
!!!RWG: Key is interpreted using the Humdrum key tool.
!!!URL-pdf: https://s9.imslp.org/files/imglnks/usimg/6/6b/IMSLP24489-PMLP09471-CCARH_Bach_Chorales.pdf#page=85 Musedata edition
!!!URL-pdf: https://s9.imslp.org/files/imglnks/usimg/7/7a/IMSLP04155-Bach_-_BGA_253-438.pdf#page=66 	Bach-Gesellschaft Ausgabe, Band 39 (pp.175-276) Leipzig: Breitkopf und Härtel, 1892. Plate B.W. XXXIX.
!!!END: 1994/07/14
!!!EMD: Converted from MuseData to Humdrum Dec 19, 2000, by Andreas Kornstaedt using muse2kern.
!!!EED: Craig Stuart Sapp
!!!EEV: 2024/03/31
!!!ONB: Some non-unicode characters
!!!filter-keyboard: satb2gs
